X: 25461
T: Marche Du Verner
R: slide
M: 12/8
K: Gmajor
[D3d3]|B2 B B2 B BGG GFE|D2 D D2 E DGG GFG|F2 F F2 E D2 c cBA|B2 B B2 B BDE FED|
B2 B B2 B BGG GFE|D2 D D2 E DGG GFG|F2 F F2 E Dcc cBA|G2 G BdB G3||
g2 g|fed fed fed ABA|G2 G Bde d3 g3|fed fed fed ABA|G2 G BdB G3 g2 g|
fed fed fed ABA|G2 G Bde d3 g3|fed fed fed dc/B/A|G3 BdB G3||

